**kern	**kern
*part1	*part1
*staff2	*staff1
*I"Piano	*
*clefF4	*clefG2
*k[b-e-a-d-]	*k[b-e-a-d-]
=1	=1
4DD- 4D-	4r
4r	8e-'L 8cc-X 8ee-
.	8e-'J 8cc- 8ee-
4D- 4F	4e-^ 4cc- 4ee-
=	=
4DD- 4D-	4r
4r	8f'L 8cc-X 8ff
.	8f'J 8cc- 8ff
4D- 4F	4f^ 4cc- 4ff
=	=
4DD- 4D-	4r
4r	8g-X'L 8b- 8gg-X
.	8g-'J 8b- 8gg-
4D- 4G-X 4B-	4g-^ 4b- 4gg-
=	=
4EE- 4E-	4r
4r	8b-'L 8gg-X 8bb-
.	8b-'J 8gg- 8bb-
4E- 4G-X 4B-	4b-^ 4gg- 4bb-
=	=
4BBB-	8B-L<
.	8BB-J<
4CC-X	4C-X< 4c-X<
4BBB-	8B-L<
.	8BB-J<
=	=
*	*^
!	!LO:TX:a:i:t=cresc.	!
4DDn	4Dn<	4dn
*	*v	*v
4BBB-	8B-L<
.	8BB-J<
*	*^
4FF	4F<	4f
*	*v	*v
=	=
4BBBn	8BnL<
.	8BBnJ<
4DD-	4Dn< 4dn<
4BBB	8BL<
.	8BBJ<
=	=
*-	*-
!!!system-decoration: {(s1,s2)}
!!!RDF**kern: < = below
